X:17
T:Peerie house ahint the burn, The
R:Reel
O:Shetland
M:4/4
K:G
dB|\
GABc dBG2|g2fg e2dc|BGBd cABG|ABAG E2D2|\
GABc dBG2|g2fg e2dc|
BGBd cAFA|G2G2 G2d2::\
fefg afd2|g2fg e2dc|\
BGBd cABG|ABAG E2D2|
|1 defg afd2|g2fg e2dc|BGBd cAFA|G2G2 G2g2\
:|2 GABc dBG2|g2fg e2dc|BGBd cAFA|G2G2 G2||
